X:1
T:F Major                      Francis Hopkinson, 1806
T:Isaac Watts, 1717 (Psalm 90, Part 1)            86. 86. (C. M.)
T:Philadelphia
T:Transcribed from Dyer's New Selection, 1820;
%%score [ 1 2 3 ( 4 5 ) ]
L:1/8
Q:1/4=150
M:4/4
K:F
V:1 treble nm="Tr." snm="Tr."
V:2 treble nm="C." snm="C."
V:3 treble-8 nm="T." snm="T."
V:4 bass nm="B." snm="B."
V:5 bass 
V:1
"^1. Our  God, our  help  in   a – ges  past,   Our   hope   for   years  to  come,     Our  shel – ter   from   the   stor – my   blast,  And  our  e    –   ter  – nal   home.\n2. Under   the  sha–dow  of  thy  throne  Thy  saints  have  dwelt se–cure;     Suf – fi – cient    is    thine  arm    a  –   lone,  And  our  de   –  fense   is     sure.\n3. Be–fore  the   hills  in   or–der  stood,    Or  earth   re– ceived her frame,   From  ev –  er  – las – ting   thou  art    God,   To   end – less    years  the  same." c4 | %1
 f4 e4 | f4 (f2 _e2) | [df]4 f4 | !fermata!f4 (g2 f2) | (e2 f2) (g2 a2) | g4 f4 | e8 | z4 f4 | %9
 f4 f4 | f4 f4 | f4 e4 | f4 g4 | f4 f4 | f4 e4 | !fermata!f8 |] %16
V:2
"^4. Thy word commands our flesh to dust,  \"Re–turn,    ye   sons   of    men:\"     All    na   – tions  rose   from   earth  at  first,   And   turn  to    earth  a  –  gain.\n5.  A  thou–sand  a   –  ges  in  thy  sight   Are  like    an  eve–ning   gone;    Short  as    the   watch  that   ends  the  night   Be –  fore  the    ri –  sing     sun.\n6. The  bu–sy  tribes of  flesh  and  blood,  With   all  their lives  and  cares,     Are   car – ried  down–wards  by   the  flood,   And   lost   in   fol –lowing  years." A4 | %1
 A4 c4 | c4 (c2 _e2) | d4 B4 | !fermata!A4 c4 | G4 c4 | c4 =B4 | c8 | z4 A4 | F4 (B2 d2) | c4 B4 | %11
 (A2 c2) B4 | A4 c4 | c4 (d2 B2) | (A2 c2) B4 | !fermata!A8 |] %16
V:3
"^7.  Time,  like  an  ev–er–rol–ling  stream,  Bears all  its   sons   a  –  way;    They   fly,    for  –  got – ten,      as   a  dream   Dies    at    the     ope–ning  day.\n8.  Like flowery fields the na–tions  stand   Pleased with the morning light;   The  flowers be –neath  the  mo–wer's hand   Lie  withe–ring   ere  'tis  night.\n9.  Our God,  our  help  in   a – ges    past,     Our  hope  for  years  to  come,   Be    thou    our   guard  while  trou–bles last,  And   our  e  –  ter – nal   home." F4 | %1
 F4 G4 | (A2 G2) F4 | B4 d4 | !fermata!c4 G4 | c4 (c2 d2) | e4 d4 | c8 | z4 c4 | (d2 c2) B4 | %10
 A4 (3(B2 c2 d2) | (c2 A2) G4 | F4 (c3 B) | A4 (3(B2 c2 d2) | (c2 A2) G4 | !fermata!F8 |] %16
V:4
"^_____________________________________________________\nTenor\n  and \nBass \n published in 1806; \nTreble \n and \nCounter\n in 1815-1820.\nIt is uncertain what Hopkinson's role was in this; he died in 1791." F,4 | %1
 F,4 C,4 | (F,2 G,2) A,4 | B,4 B,,4 | !fermata!F,4 (E,2 D,2) | (C,2 D,2) (E,2 F,2) | G,4 G,,4 | %7
 C,8 | z4 F,4 | (B,2 A,2) G,4 | F,4 B,4 | C4 C,4 | F,4 E,4 | F,4 B,,4 | C,4 C,4 | !fermata!F,8 |] %16
V:5
 x4 | x8 | x8 | x8 | x4 C,4 | x8 | x8 | x8 | x8 | x8 | x8 | x8 | x8 | x8 | x8 | x8 |] %16

